media/icons/icon-email-grey.svg

<svg xmlns="http://www.w3.org/2000/svg" width="16" height="12" viewBox="0 0 16 12"><path fill="#57626C" d="M0 1.4v-.4c0-.6.4-1 1-1h14c.6 0 1 .4 1 1v.4l-8 5-8-5zm8.3 6c-.1.1-.2.1-.3.1-.1 0-.2 0-.3-.1l-7.7-4.8v8.4c0 .6.4 1 1 1h14c.6 0 1-.4 1-1v-8.4l-7.7 4.8z"></path></svg>

<svg width="16px" height="12px" viewBox="0 0 16 12" version="1.1" xmlns="http://www.w3.org/2000/svg" xmlns:xlink="http://www.w3.org/1999/xlink">
    <!-- Generator: Sketch 43.2 (39069) - http://www.bohemiancoding.com/sketch -->
    <desc>Created with Sketch.</desc>
    <defs></defs>
    <g id="Page-1" stroke="none" stroke-width="1" fill="none" fill-rule="evenodd">
        <g id="icon-email" transform="translate(-30.000000, -32.000000)" fill-rule="nonzero" fill="#57626C">
            <g transform="translate(30.000000, 32.000000)" id="Group">
                <g>
                    <path d="M0,1.4 L0,1 C0,0.4 0.4,-1.11022302e-16 1,-1.11022302e-16 L15,-1.11022302e-16 C15.6,-1.11022302e-16 16,0.4 16,1 L16,1.4 L8,6.4 L0,1.4 L0,1.4 Z M8.3,7.4 C8.2,7.5 8.1,7.5 8,7.5 C7.9,7.5 7.8,7.5 7.7,7.4 L0,2.6 L0,11 C0,11.6 0.4,12 1,12 L15,12 C15.6,12 16,11.6 16,11 L16,2.6 L8.3,7.4 L8.3,7.4 Z" id="Shape"></path>
                </g>
            </g>
        </g>
    </g>
</svg>
